X:290
T: Sweeney's
S: Allan's Irish Fiddler
Z: B.Black
N: simplified version - original in cut time
L: 1/8
M: C|
R: hornpipe
K: A
cB|(3AGA BA FA E2|(3FGA Bc d2 cd|eaga fedc|\
(3BcB (3AGF E2 cB|
(3AGA BA FA E2|(3FGA Bc d2 cd|eaga fdBG|A2 c2 A2 :|
cd|(3ede ae fecd|(3ece ae f2 cd|(3ede ae fedc|\
(3BcB (3AGF E2 cB|
(3AGA BA FA E2|(3FGA Bc d2 cd|eaga fdBG|A2 c2 A2 :|
